src/assets/Icons/translation.svg

<svg id="Capa_1" enable-background="new 0 0 512 512" height="512" viewBox="0 0 512 512" width="512" xmlns="http://www.w3.org/2000/svg"><g><path d="m207.386 280.048c0-4.142-3.358-7.5-7.5-7.5h-168.338c-9.125 0-16.548-7.423-16.548-16.548v-224.452c0-9.125 7.423-16.548 16.548-16.548h224.452c9.125 0 16.548 7.423 16.548 16.548v168.338c0 4.142 3.358 7.5 7.5 7.5s7.5-3.358 7.5-7.5v-168.338c0-17.396-14.152-31.548-31.548-31.548h-224.452c-17.396 0-31.548 14.152-31.548 31.548v224.452c0 17.396 14.152 31.548 31.548 31.548h168.338c4.142 0 7.5-3.358 7.5-7.5z"/><path d="m480.452 224.452h-64.129c-4.142 0-7.5 3.358-7.5 7.5s3.358 7.5 7.5 7.5h64.129c9.125 0 16.548 7.423 16.548 16.548v224.452c0 9.125-7.423 16.548-16.548 16.548h-224.452c-9.125 0-16.548-7.423-16.548-16.548v-224.452c0-9.125 7.423-16.548 16.548-16.548h128.259c4.142 0 7.5-3.358 7.5-7.5s-3.358-7.5-7.5-7.5h-128.259c-17.396 0-31.548 14.152-31.548 31.548v224.452c0 17.396 14.152 31.548 31.548 31.548h224.452c17.396 0 31.548-14.152 31.548-31.548v-224.452c0-17.396-14.152-31.548-31.548-31.548z"/><path d="m215.919 80.161h-64.645v-8.532c0-4.142-3.358-7.5-7.5-7.5s-7.5 3.358-7.5 7.5v8.532h-64.645c-4.142 0-7.5 3.358-7.5 7.5s3.358 7.5 7.5 7.5h110.446c-4.319 13.874-15.141 41.853-38.337 69.779-14.166-17.038-23.762-34.166-30.118-48.323-1.697-3.778-6.133-5.467-9.914-3.771-3.779 1.697-5.467 6.135-3.771 9.914 7.021 15.639 17.728 34.661 33.696 53.479-11.383 11.809-25.167 23.259-41.814 33.248-3.552 2.131-4.704 6.738-2.572 10.29 1.406 2.344 3.89 3.642 6.438 3.642 1.313 0 2.644-.345 3.852-1.07 17.648-10.589 32.225-22.703 44.2-35.007 12.11 12.434 26.701 24.462 44.276 35.007 1.208.725 2.539 1.07 3.852 1.07 2.548 0 5.032-1.298 6.438-3.642 2.131-3.552.979-8.159-2.572-10.29-16.676-10.005-30.473-21.447-41.88-33.265 11.789-13.878 20.436-27.488 26.589-38.914 9.956-18.49 15.043-34.033 17.292-42.148h18.189c4.142 0 7.5-3.358 7.5-7.5s-3.357-7.499-7.5-7.499z"/><path d="m378.434 295.254c-1.668-4.055-5.577-6.674-9.961-6.674-.003 0-.007 0-.011 0-4.388.004-8.297 2.631-9.958 6.693-.023.056-.045.113-.067.169l-54.181 142.258c-1.474 3.871.468 8.204 4.339 9.678.879.335 1.781.493 2.668.493 3.022 0 5.871-1.84 7.01-4.833l11.654-30.599h76.701l11.54 30.578c1.463 3.875 5.788 5.832 9.665 4.369 3.875-1.462 5.832-5.79 4.369-9.665l-53.688-142.264c-.025-.067-.052-.135-.08-.203zm-42.793 102.187 32.813-86.156 32.514 86.156z"/><path d="m204.387 410.323-32.064-24.048c-3.313-2.485-8.015-1.813-10.5 1.5s-1.813 8.015 1.5 10.5l14.064 10.548h-25.597c-26.806 0-48.613-21.808-48.613-48.613v-48.093c0-4.142-3.358-7.5-7.5-7.5s-7.5 3.358-7.5 7.5v48.093c0 35.077 28.537 63.613 63.613 63.613h25.597l-14.064 10.548c-3.313 2.485-3.985 7.187-1.5 10.5 1.474 1.965 3.726 3 6.006 3 1.566 0 3.145-.489 4.494-1.5l32.064-24.048c1.889-1.417 3-3.639 3-6s-1.111-4.584-3-6z"/><path d="m307.613 101.677 32.064 24.048c1.349 1.012 2.928 1.5 4.494 1.5 2.28 0 4.533-1.036 6.006-3 2.485-3.313 1.813-8.015-1.5-10.5l-14.064-10.548h25.597c26.806 0 48.613 21.808 48.613 48.613v48.093c0 4.142 3.358 7.5 7.5 7.5s7.5-3.358 7.5-7.5v-48.093c0-35.077-28.537-63.613-63.613-63.613h-25.597l14.064-10.548c3.313-2.485 3.985-7.187 1.5-10.5-2.486-3.314-7.186-3.985-10.5-1.5l-32.064 24.048c-1.889 1.417-3 3.639-3 6s1.111 4.584 3 6z"/></g></svg>

<?xml version="1.0" encoding="UTF-8" standalone="no"?>
<!DOCTYPE svg PUBLIC "-//W3C//DTD SVG 1.1//EN" "http://www.w3.org/Graphics/SVG/1.1/DTD/svg11.dtd">
<svg width="100%" height="100%" viewBox="0 0 512 512" version="1.1" xmlns="http://www.w3.org/2000/svg" xmlns:xlink="http://www.w3.org/1999/xlink" xml:space="preserve" xmlns:serif="http://www.serif.com/" style="fill-rule:evenodd;clip-rule:evenodd;stroke-linejoin:round;stroke-miterlimit:2;">
    <g>
        <path d="M207.386,280.048C207.386,275.906 204.028,272.548 199.886,272.548L31.548,272.548C22.423,272.548 15,265.125 15,256L15,31.548C15,22.423 22.423,15 31.548,15L256,15C265.125,15 272.548,22.423 272.548,31.548L272.548,199.886C272.548,204.028 275.906,207.386 280.048,207.386C284.19,207.386 287.548,204.028 287.548,199.886L287.548,31.548C287.548,14.152 273.396,0 256,0L31.548,0C14.152,0 0,14.152 0,31.548L0,256C0,273.396 14.152,287.548 31.548,287.548L199.886,287.548C204.028,287.548 207.386,284.19 207.386,280.048Z" style="fill:white;fill-rule:nonzero;"/>
        <path d="M480.452,224.452L416.323,224.452C412.181,224.452 408.823,227.81 408.823,231.952C408.823,236.094 412.181,239.452 416.323,239.452L480.452,239.452C489.577,239.452 497,246.875 497,256L497,480.452C497,489.577 489.577,497 480.452,497L256,497C246.875,497 239.452,489.577 239.452,480.452L239.452,256C239.452,246.875 246.875,239.452 256,239.452L384.259,239.452C388.401,239.452 391.759,236.094 391.759,231.952C391.759,227.81 388.401,224.452 384.259,224.452L256,224.452C238.604,224.452 224.452,238.604 224.452,256L224.452,480.452C224.452,497.848 238.604,512 256,512L480.452,512C497.848,512 512,497.848 512,480.452L512,256C512,238.604 497.848,224.452 480.452,224.452Z" style="fill:white;fill-rule:nonzero;"/>
        <path d="M215.919,80.161L151.274,80.161L151.274,71.629C151.274,67.487 147.916,64.129 143.774,64.129C139.632,64.129 136.274,67.487 136.274,71.629L136.274,80.161L71.629,80.161C67.487,80.161 64.129,83.519 64.129,87.661C64.129,91.803 67.487,95.161 71.629,95.161L182.075,95.161C177.756,109.035 166.934,137.014 143.738,164.94C129.572,147.902 119.976,130.774 113.62,116.617C111.923,112.839 107.487,111.15 103.706,112.846C99.927,114.543 98.239,118.981 99.935,122.76C106.956,138.399 117.663,157.421 133.631,176.239C122.248,188.048 108.464,199.498 91.817,209.487C88.265,211.618 87.113,216.225 89.245,219.777C90.651,222.121 93.135,223.419 95.683,223.419C96.996,223.419 98.327,223.074 99.535,222.349C117.183,211.76 131.76,199.646 143.735,187.342C155.845,199.776 170.436,211.804 188.011,222.349C189.219,223.074 190.55,223.419 191.863,223.419C194.411,223.419 196.895,222.121 198.301,219.777C200.432,216.225 199.28,211.618 195.729,209.487C179.053,199.482 165.256,188.04 153.849,176.222C165.638,162.344 174.285,148.734 180.438,137.308C190.394,118.818 195.481,103.275 197.73,95.16L215.919,95.16C220.061,95.16 223.419,91.802 223.419,87.66C223.419,83.518 220.062,80.161 215.919,80.161Z" style="fill:white;fill-rule:nonzero;"/>
        <path d="M378.434,295.254C376.766,291.199 372.857,288.58 368.473,288.58L368.462,288.58C364.074,288.584 360.165,291.211 358.504,295.273C358.481,295.329 358.459,295.386 358.437,295.442L304.256,437.7C302.782,441.571 304.724,445.904 308.595,447.378C309.474,447.713 310.376,447.871 311.263,447.871C314.285,447.871 317.134,446.031 318.273,443.038L329.927,412.439L406.628,412.439L418.168,443.017C419.631,446.892 423.956,448.849 427.833,447.386C431.708,445.924 433.665,441.596 432.202,437.721L378.514,295.457C378.489,295.39 378.462,295.322 378.434,295.254ZM335.641,397.441L368.454,311.285L400.968,397.441L335.641,397.441Z" style="fill:white;fill-rule:nonzero;"/>
        <path d="M204.387,410.323L172.323,386.275C169.01,383.79 164.308,384.462 161.823,387.775C159.338,391.088 160.01,395.79 163.323,398.275L177.387,408.823L151.79,408.823C124.984,408.823 103.177,387.015 103.177,360.21L103.177,312.117C103.177,307.975 99.819,304.617 95.677,304.617C91.535,304.617 88.177,307.975 88.177,312.117L88.177,360.21C88.177,395.287 116.714,423.823 151.79,423.823L177.387,423.823L163.323,434.371C160.01,436.856 159.338,441.558 161.823,444.871C163.297,446.836 165.549,447.871 167.829,447.871C169.395,447.871 170.974,447.382 172.323,446.371L204.387,422.323C206.276,420.906 207.387,418.684 207.387,416.323C207.387,413.962 206.276,411.739 204.387,410.323Z" style="fill:white;fill-rule:nonzero;"/>
        <path d="M307.613,101.677L339.677,125.725C341.026,126.737 342.605,127.225 344.171,127.225C346.451,127.225 348.704,126.189 350.177,124.225C352.662,120.912 351.99,116.21 348.677,113.725L334.613,103.177L360.21,103.177C387.016,103.177 408.823,124.985 408.823,151.79L408.823,199.883C408.823,204.025 412.181,207.383 416.323,207.383C420.465,207.383 423.823,204.025 423.823,199.883L423.823,151.79C423.823,116.713 395.286,88.177 360.21,88.177L334.613,88.177L348.677,77.629C351.99,75.144 352.662,70.442 350.177,67.129C347.691,63.815 342.991,63.144 339.677,65.629L307.613,89.677C305.724,91.094 304.613,93.316 304.613,95.677C304.613,98.038 305.724,100.261 307.613,101.677Z" style="fill:white;fill-rule:nonzero;"/>
    </g>
</svg>
